X: 36689
T: She Loves Another
R: reel
M: 4/4
K: Dmajor
|:E2EF EDB,D|EFAB dBAF|E2EF EDB,D|EFAF EDD2|
E2EF EDB,D|EFAB dBAF|ABde fgfe|dBAG FDD2:|
|:dcde fga2|fgfe dcdB|ABAF ABdB|ABAG FDD2|
GFGA BcdB|ABAG FEFD|GABd fgfe|dBAG FDD2:|

